docs/icons/custom.svg

<svg xmlns="http://www.w3.org/2000/svg" xmlns:xlink="http://www.w3.org/1999/xlink" width="30" height="30" viewBox="0 0 30 30" fill="none"><defs><rect id="path_0" x="0" y="0" width="30" height="30" /></defs><g opacity="1" transform="translate(0 0)  rotate(0 15 15)"><mask id="bg-mask" fill="white"><use xlink:href="#path_0"></use></mask><g mask="url(#bg-mask)" ><path id="分组 1" fill-rule="evenodd" style="fill:#1677FF" transform="translate(0 0)  rotate(0 15 15)" opacity="1" d="M0 15C0 23.28 6.72 30 15 30C23.28 30 30 23.28 30 15C30 6.72 23.28 0 15 0C6.72 0 0 6.72 0 15Z M9.25538 16.1538C9.28538 16.8938 9.34538 17.6138 9.43538 18.3038L9.51538 18.8238L9.60538 19.3738C10.3154 23.4438 11.9754 26.5038 13.8454 27.4138L13.8454 16.1538L9.25538 16.1538Z M16.1538 16.1538L16.1538 27.4138C17.9838 26.5238 19.6138 23.5738 20.3538 19.6438L20.4038 19.3738L20.4838 18.8238C20.6238 17.9338 20.7038 17.0438 20.7438 16.1538L16.1538 16.1538Z M2.35923 16.1546C2.77923 20.8046 5.70923 24.7346 9.78923 26.5746C8.98923 25.3446 8.33923 23.8246 7.84923 22.1046L7.73923 21.7046L7.61923 21.1946L7.49923 20.6746C7.18923 19.1846 6.99923 17.6746 6.94923 16.1546L2.35923 16.1546Z M23.0585 16.1546C22.9985 17.5146 22.8485 18.8646 22.5985 20.1946L22.4985 20.6746L22.3785 21.1946L22.2585 21.7046C21.7685 23.5846 21.0685 25.2446 20.2085 26.5746C24.2885 24.7346 27.2185 20.8046 27.6385 16.1546L27.6385 16.1546L23.0585 16.1546Z M9.68923 3.47154C5.65923 5.33154 2.77923 9.23154 2.35923 13.8415L6.94923 13.8415C6.99923 12.4415 7.15923 11.0815 7.39923 9.80154L7.49923 9.33154L7.61923 8.80154L7.73923 8.29154C8.23923 6.41154 8.92923 4.75154 9.78923 3.42154L9.78923 3.42154L9.68923 3.47154Z M9.65538 10.3277L9.60538 10.6277L9.51538 11.1777C9.37538 12.0577 9.29538 12.9577 9.25538 13.8477L13.8454 13.8477L13.8454 2.58769C12.0154 3.47769 10.3954 6.40769 9.65538 10.3277Z M22.1392 7.88231L22.2592 8.29231L22.3792 8.80231L22.4992 9.32231C22.7992 10.7423 22.9892 12.2623 23.0592 13.8423L27.6392 13.8423C27.2192 9.19231 24.2892 5.26231 20.2092 3.42231L20.2992 3.57231C21.0592 4.77231 21.6792 6.23231 22.1392 7.88231Z M20.2092 3.42231L20.2092 3.42231L20.2092 3.42231C20.2092 3.42231 20.2092 3.42231 20.2092 3.42231Z M16.1538 13.8477L20.7438 13.8477C20.7138 13.1077 20.6438 12.3677 20.5538 11.6377L20.4838 11.1777L20.4038 10.6277C19.6838 6.55769 18.0338 3.49769 16.1538 2.58769L16.1538 2.58769L16.1538 13.8477Z " /></g></g></svg>

<svg xmlns="http://www.w3.org/2000/svg" xmlns:xlink="http://www.w3.org/1999/xlink" width="30" height="30" fill="none" xmlns:v="https://vecta.io/nano"><defs><path id="A" d="M0 0h30v30H0z"/></defs><g transform="matrix(1 0 0 1 0 0)"><mask id="B" fill="#fff"><use xlink:href="#A"/></mask><g mask="url(#B)"><path fill-rule="evenodd" transform="matrix(1 0 0 1 0 0)" d="M0 15a15.01 15.01 0 0 0 15 15 15.01 15.01 0 0 0 15-15A15.01 15.01 0 0 0 15 0 15.01 15.01 0 0 0 0 15zm9.255 1.154l.18 2.15.08.52.09.55c.71 4.07 2.37 7.13 4.24 8.04v-11.26h-4.59zm6.898 0v11.26c1.83-.89 3.46-3.84 4.2-7.77l.05-.27.08-.55a24.12 24.12 0 0 0 .26-2.67h-4.59zm-13.795.001c.42 4.65 3.35 8.58 7.43 10.42-.8-1.23-1.45-2.75-1.94-4.47l-.11-.4-.12-.51-.12-.52c-.31-1.49-.5-3-.55-4.52h-4.59zm20.699 0c-.06 1.36-.21 2.71-.46 4.04l-.1.48-.12.52-.12.51c-.49 1.88-1.19 3.54-2.05 4.87 4.08-1.84 7.01-5.77 7.43-10.42h0-4.58zM9.689 3.472c-4.03 1.86-6.91 5.76-7.33 10.37h4.59a27.28 27.28 0 0 1 .45-4.04l.1-.47.12-.53.12-.51c.5-1.88 1.19-3.54 2.05-4.87h0l-.1.05zm-.034 6.856l-.05.3-.09.55c-.14.88-.22 1.78-.26 2.67h4.59V2.588c-1.83.89-3.45 3.82-4.19 7.74zm12.484-2.445l.12.41.12.51.12.52c.3 1.42.49 2.94.56 4.52h4.58c-.42-4.65-3.35-8.58-7.43-10.42l.09.15c.76 1.2 1.38 2.66 1.84 4.31zm-1.93-4.46h0 0zm-4.055 10.425h4.59a27.06 27.06 0 0 0-.19-2.21l-.07-.46-.08-.55c-.72-4.07-2.37-7.13-4.25-8.04h0v11.26z" fill="#1677ff"/></g></g></svg>
